X: 4
T: Ashokan Farewell
R: waltz
M: 3/4
L: 1/8
K: Dmaj
Ac|:"D" d3 cBA|"D7" F4 EF|"G" G3 FED|"Em" B,2D3B,|
"D" A,2D2F2|"Bm" A2d2f2|"Em" f3gf2|"A7" e4Acj|
"D" d3 cBA|"F#m" F4 EF|"G" G3 FED|"Em" B,2D3B,|
"D" A,2D2F2|"Bm" A2d2f2|"A7" A2c2e2|1"D" d4Ac:|2"D" d4FG|]
|:"D" A3FD2|"D7" d4A2|"G" B3cd2|"D" AF3E2|
"D" F3ED2|"Bm" B,4?G,2|"A" A,6|"A7" A4 FE|
"D" D2F2A2|"C" =c6|"G" B3cd2|"D" AF3D2|
"D" A,2D2F2|"Bm" A2d2F2|"Em" E3D"A7"C2|1"D"D4FG:|2"D" D6|]


Tune 4997	Setting 26953

